X:1
T:Struggle for pleasure
T:Wim Mertens
T:Musescore : Maxime CYRKLEWSKI
%%score { 1 | ( 2 3 ) }
L:1/8
Q:1/4=140
M:4/4
K:Ab
V:1 treble nm="Piano" snm="Pno."
V:2 bass 
V:3 bass 
V:1
 (CF)AF- F4 | (DF) A2 (CF) A2 | (B,E)GE- E4- | EA,DF C4- | CFAF- F4 | (DF) A2 (CF) A2 | %6
 (B,E)GE- E4- | E8 | (B,F)AF- F4- | F8 | (B,E)GE- E4- | E8 || z CFA F4- |: F(DF)A- ACFA- | %14
 AB,EG E4- | EA,DF C4- |1 CFAF- F4 :|2 (CF)AF- F4 || (DF) A2 (CF) A2 | (B,E)GE- E4- | E8 | %21
 (B,F)AF- F4- | F8 | (B,E)GE- E4- | E8- | E8 |: A/C/A,/C/ A/C/A,/C/ A/C/A,/C/ A/C/A,/C/ | %27
 A/D/A,/D/ A/D/A,/D/ A/C/A,/C/ A/C/A,/C/ | G/C/G,/C/ G/C/G,/C/ G/C/G,/C/ G/C/G,/C/ | %29
 F/C/F,/C/ F/C/F,/C/ F/C/F,/C/ F/C/F,/C/ :: A/C/A,/C/ A/C/A,/C/ A/C/A,/C/ A/C/A,/C/ | %31
 A/D/A,/D/ A/D/A,/D/ A/C/A,/C/ A/C/A,/C/ | G/E/B,/E/ G/E/B,/E/ G/E/B,/E/ G/E/B,/E/ | %33
 G/E/B,/E/ G/E/B,/E/ G/E/B,/E/ G/E/B,/E/ :: F/B,/F,/B,/ F/B,/F,/B,/ F/B,/F,/B,/ F/B,/F,/B,/ | %35
 F/B,/F,/B,/ F/B,/F,/B,/ F/B,/F,/B,/ F/B,/F,/B,/ | G/E/B,/E/ G/E/B,/E/ G/E/B,/E/ G/E/B,/E/ | %37
 G/E/B,/E/ G/E/B,/E/ G/E/B,/E/ G/E/B,/E/ :: FF/B/ z/ B/c FF/B/ z/ B/c | FF/B/ z/ B/d FF/B/ z/ B/c | %40
 EE/G/ z/ G/c EE/G/ z/ G/c | DD/F/ z/ F/c DD/F/ z/ F/c :: FF/B/ z/ B/c FF/B/ z/ B/c | %43
 FF/B/ z/ B/d FF/B/ z/ B/c | EE/B/ z/ B/d EE/B/ z/ B/d | EE/B/ z/ B/d EE/B/ z/ B/d :: %46
 FF/B/ z/ B/c FF/B/ z/ B/c | FF/B/ z/ B/c FF/B/ z/ B/c | EE/B/ z/ B/d EE/B/ z/ B/d | %49
 EE/B/ z/ B/d EE/B/ z/ B/d :: FF/B/- B/F/B/c/ FF/B/- B/F/B/c/ | FF/B/- B/F/B/d/ FF/B/- B/F/B/c/ | %52
 EE/G/- G/E/G/c/ EE/G/- G/E/G/c/ | DD/F/- F/D/F/c/ DD/F/- F/D/F/c/ :: %54
 FF/B/- B/F/B/c/ FF/B/- B/F/B/c/ | FF/B/- B/F/B/d/ FF/B/- B/F/B/c/ | %56
 EE/B/- B/E/B/d/ EE/B/- B/E/B/d/ | EE/B/- B/E/B/d/ EE/B/- B/E/B/d/ :: %58
 FF/B/- B/F/B/c/ FF/B/- B/F/B/c/ | FF/B/- B/F/B/c/ FF/B/- B/F/B/c/ | %60
 EE/B/- B/E/B/d/ EE/B/- B/E/B/d/ | EE/B/- B/E/B/d/ EE/B/- B/E/B/d/ :| z CFA F4- |: F(DF)A- ACFA- | %64
 AB,EG E4- | EA,DF C4- |1 CFAF- F4 :|2 (CF)AF- F4 || (DF) A2 (CF) A2 | (B,E)GE- E4- | E8 | %71
 (B,F)AF- F4- | F8 | ((B,E))GE- E4- | E8- | E8 |:S A/C/A,/C/ A/C/A,/C/ A/C/A,/C/ A/C/A,/C/ | %77
 A/D/A,/D/ A/D/A,/D/ A/C/A,/C/ A/C/A,/C/ | G/C/G,/C/ G/C/G,/C/ G/C/G,/C/ G/C/G,/C/ | %79
 F/C/F,/C/ F/C/F,/C/ F/C/F,/C/ F/C/F,/C/ :: %80
"^no repeat 2nd time m. 81-85" A/C/A,/C/ A/C/A,/C/ A/C/A,/C/ A/C/A,/C/ | %81
 A/D/A,/D/ A/D/A,/D/ A/C/A,/C/ A/C/A,/C/ | G/E/B,/E/ G/E/B,/E/ G/E/B,/E/ G/E/B,/E/ | %83
 G/E/B,/E/ G/E/B,/E/ G/E/B,/E/ G/E/B,/E/ :: F/B,/F,/B,/ F/B,/F,/B,/ F/B,/F,/B,/ F/B,/F,/B,/ | %85
 F/B,/F,/B,/ F/B,/F,/B,/ F/B,/F,/B,/ F/B,/F,/B,/ | G/E/B,/E/ G/E/B,/E/ G/E/B,/E/ G/E/B,/E/ | %87
 G/E/B,/E/ G/E/B,/E/ G/E/B,/E/ G/E/B,/E/!D.S.! :| %88
V:2
 z8 | z8 | z8 | z8 | z8 | z8 | z8 | z8 | z8 | z8 | z8 | z8 || F,2 F,2 F,2 F,2 |: F,2 F,2 F,2 F,2 | %14
 F,2 F,2 F,2 F,2 | F,2 F,2 F,2 F,2 |1 F,2 F,2 F,2 F,2 :|2 F,4 F,2 F,2 || F,2 F,2 F,2 F,2 | %19
 E,4 E,2 E,2 | E,2 E,2 E,2 E,2 | B,,4 B,,2 B,,2 | B,,2 B,,2 B,,2 B,,2 | E,4 E,2 E,2 | %24
 E,2 E,2 E,2 E,2 | E,2 E,2 E,2 E,2 |: F,,/C,/F,/C,/ F,,/C,/F,/C,/ F,,/C,/F,/C,/ F,,/C,/F,/C,/ | %27
 F,,/D,/F,/D,/ F,,/D,/F,/D,/ F,,/C,/F,/C,/ F,,/C,/F,/C,/ | %28
 E,,/B,,/E,/B,,/ E,,/B,,/E,/B,,/ E,,/B,,/E,/B,,/ E,,/B,,/E,/B,,/ | %29
 D,,/A,,/D,/A,,/ D,,/A,,/D,/A,,/ D,,/A,,/D,/A,,/ D,,/A,,/D,/A,,/ :: %30
 F,,/C,/F,/C,/ F,,/C,/F,/C,/ F,,/C,/F,/C,/ F,,/C,/F,/C,/ | %31
 F,,/D,/F,/D,/ F,,/D,/F,/D,/ F,,/C,/F,/C,/ F,,/C,/F,/C,/ | %32
 E,,/B,,/E,/B,,/ E,,/B,,/E,/B,,/ E,,/B,,/E,/B,,/ E,,/B,,/E,/B,,/ | %33
 E,,/B,,/E,/B,,/ E,,/B,,/E,/B,,/ E,,/B,,/E,/B,,/ E,,/B,,/E,/B,,/ :: %34
 B,,,/F,,/B,,/F,,/ B,,,/F,,/B,,/F,,/ B,,,/F,,/B,,/F,,/ B,,,/F,,/B,,/F,,/ | %35
 D,,/A,,/D,/A,,/ D,,/A,,/D,/A,,/ D,,/A,,/D,/A,,/ D,,/A,,/D,/A,,/ | %36
 E,,/B,,/E,/B,,/ E,,/B,,/E,/B,,/ E,,/B,,/E,/B,,/ E,,/B,,/E,/B,,/ | %37
 E,,/B,,/E,/B,,/ E,,/B,,/E,/B,,/ E,,/B,,/E,/B,,/ E,,/B,,/E,/B,,/ :: %38
 F,,[C,F,]F,,[C,F,] F,,[C,F,]F,,[C,F,] | F,,[D,F,]F,,[D,F,] F,,[C,F,]F,,[C,F,] | %40
 E,,[B,,E,]E,,[B,,E,] E,,[B,,E,]E,,[B,,E,] | D,,[A,,D,]D,,[A,,D,] D,,[A,,D,]D,,[A,,D,] :: %42
 F,,[C,F,]F,,[C,F,] F,,[C,F,]F,,[C,F,] | F,,[D,F,]F,,[D,F,] F,,[C,F,]F,,[C,F,] | %44
 E,,[B,,E,]E,,[B,,E,] E,,[B,,E,]E,,[B,,E,] | E,,[B,,E,]E,,[B,,E,] E,,[B,,E,]E,,[B,,E,] :: %46
 B,,,[F,,B,,]B,,,[F,,B,,] B,,,[F,,B,,]B,,,[F,,B,,] | D,,[A,,D,]D,,[A,,D,] D,,[A,,D,]D,,[A,,D,] | %48
 E,,[B,,E,]E,,[B,,E,] E,,[B,,E,]E,,[B,,E,] | E,,[B,,E,]E,,[B,,E,] E,,[B,,E,]E,,[B,,E,] :: %50
 F,,[C,F,]F,,[C,F,] F,,[C,F,]F,,[C,F,] | F,,[D,F,]F,,[D,F,] F,,[C,F,]F,,[C,F,] | %52
 E,,[B,,E,]E,,[B,,E,] E,,[B,,E,]E,,[B,,E,] | D,,[A,,D,]D,,[A,,D,] D,,[A,,D,]D,,[A,,D,] :: %54
 F,,[C,F,]F,,[C,F,] F,,[C,F,]F,,[C,F,] | F,,[D,F,]F,,[D,F,] F,,[C,F,]F,,[C,F,] | %56
 E,,[B,,E,]E,,[B,,E,] E,,[B,,E,]E,,[B,,E,] | E,,[B,,E,]E,,[B,,E,] E,,[B,,E,]E,,[B,,E,] :: %58
 B,,,[F,,B,,]B,,,[F,,B,,] B,,,[F,,B,,]B,,,[F,,B,,] | D,,[A,,D,]D,,[A,,D,] D,,[A,,D,]D,,[A,,D,] | %60
 E,,[B,,E,]E,,[B,,E,] E,,[B,,E,]E,,[B,,E,] | E,,[B,,E,]E,,[B,,E,] E,,[B,,E,]E,,[B,,E,] :| %62
 F,4 F,2 F,2 |: F,2 F,2 F,2 F,2 | F,2 F,2 F,2 F,2 | F,2 F,2 F,2 F,2 |1 F,4 F,2 F,2 :|2 %67
 F,4 F,2 F,2 || F,2 F,2 F,2 F,2 | E,4 E,2 E,2 | E,2 E,2 E,2 E,2 | B,,4 B,,2 B,,2 | %72
 B,,2 B,,2 B,,2 B,,2 | E,4 E,2 E,2 | E,2 E,2 E,2 E,2 | E,2 E,2 E,2 E,2 |: %76
 F,,/C,/F,/C,/ F,,/C,/F,/C,/ F,,/C,/F,/C,/ F,,/C,/F,/C,/ | %77
 F,,/D,/F,/D,/ F,,/D,/F,/D,/ F,,/C,/F,/C,/ F,,/C,/F,/C,/ | %78
 E,,/B,,/E,/B,,/ E,,/B,,/E,/B,,/ E,,/B,,/E,/B,,/ E,,/B,,/E,/B,,/ | %79
 D,,/A,,/D,/A,,/ D,,/A,,/D,/A,,/ D,,/A,,/D,/A,,/ D,,/A,,/D,/A,,/ :: %80
 F,,/C,/F,/C,/ F,,/C,/F,/C,/ F,,/C,/F,/C,/ F,,/C,/F,/C,/ | %81
 F,,/D,/F,/D,/ F,,/D,/F,/D,/ F,,/C,/F,/C,/ F,,/C,/F,/C,/ | %82
 E,,/B,,/E,/B,,/ E,,/B,,/E,/B,,/ E,,/B,,/E,/B,,/ E,,/B,,/E,/B,,/ | %83
 E,,/B,,/E,/B,,/ E,,/B,,/E,/B,,/ E,,/B,,/E,/B,,/ E,,/B,,/E,/B,,/ :: %84
 B,,,/F,,/B,,/F,,/ B,,,/F,,/B,,/F,,/ B,,,/F,,/B,,/F,,/ B,,,/F,,/B,,/F,,/ | %85
 D,,/A,,/D,/A,,/ D,,/A,,/D,/A,,/ D,,/A,,/D,/A,,/ D,,/A,,/D,/A,,/ | %86
 E,,/B,,/E,/B,,/ E,,/B,,/E,/B,,/ E,,/B,,/E,/B,,/ E,,/B,,/E,/B,,/ | %87
 E,,/B,,/E,/B,,/ E,,/B,,/E,/B,,/ E,,/B,,/E,/B,,/ E,,/B,,/E,/B,,/ :| %88
V:3
 x8 | x8 | x8 | x8 | x8 | x8 | x8 | x8 | x8 | x8 | x8 | x8 || x8 |: x8 | x8 | x8 |1 x8 :|2 %17
 z2 F,,6- || F,,8 | z2 E,,6- | E,,8 | z2 B,,,6- | B,,,8 | z2 E,,6- | E,,8- | E,,8 |: x8 | x8 | x8 | %29
 x8 :: x8 | x8 | x8 | x8 :: x8 | x8 | x8 | x8 :: x8 | x8 | x8 | x8 :: x8 | x8 | x8 | x8 :: x8 | %47
 x8 | x8 | x8 :: x8 | x8 | x8 | x8 :: x8 | x8 | x8 | x8 :: x8 | x8 | x8 | x8 :| z2 F,,6- |: F,,8- | %64
 F,,8- | F,,8 |1 z2 F,,6 :|2 z2 F,,6- || F,,8 | z2 E,,6- | E,,8 | z2 B,,,6- | B,,,8 | z2 E,,6- | %74
 E,,8- | E,,8 |: x8 | x8 | x8 | x8 :: x8 | x8 | x8 | x8 :: x8 | x8 | x8 | x8 :| %88

